packages/ui-icons/svg/Line/annotate.svg

<svg viewBox="0 0 1920 1920" version="1.1" xmlns="http://www.w3.org/2000/svg">
    <g fill-rule="nonzero" stroke="none" stroke-width="1">
        <path d="M1468.23529,113 L1468.23529,212.388235 L1355.29412,325.329412 L1355.29412,225.941176 L112.941176,225.941176 L112.941176,1694.17647 L1355.29412,1694.17647 L1355.29412,1255.96471 L1468.23529,1143.02353 L1468.23529,1807.11765 L0,1807.11765 L0,113 L1468.23529,113 Z M421.270588,1163.35294 C517.270588,1154.31765 576,1271.77647 612.141176,1361 C640.376471,1429.89412 650.541176,1453.61176 684.423529,1457 C718.305882,1460.38824 773.647059,1398.27059 797.364706,1355.35294 C813.894264,1328.84327 848.78445,1320.7528 875.294118,1337.28235 C901.803786,1353.81191 909.894264,1388.7021 893.364706,1415.21176 C884.329412,1432.15294 800.752941,1575.58824 687.811765,1575.58824 L687.811765,1575.58824 L678.776471,1575.58824 C608.752941,1571.07059 556.8,1527.02353 509.364706,1409.56471 C461.929412,1292.10588 431.435294,1281.94118 431.435294,1281.94118 C380.174711,1347.63097 346.721038,1425.43021 334.305882,1507.82353 C327.756435,1539.01137 297.164315,1558.98474 265.976471,1552.43529 C234.788626,1545.88585 214.815258,1515.29373 221.364706,1484.10588 C241.694118,1389.23529 300.423529,1173.51765 421.270588,1163.35294 Z M677.647059,677.705882 L677.647059,790.647059 L338.823529,790.647059 L338.823529,677.705882 L677.647059,677.705882 Z M903.529412,451.823529 L903.529412,564.764706 L338.823529,564.764706 L338.823529,451.823529 L903.529412,451.823529 Z"/>
        <path d="M1903.05882,468.764706 L1677.17647,242.882353 C1666.57318,232.191756 1652.13953,226.178448 1637.08235,226.178448 C1622.02517,226.178448 1607.59153,232.191756 1596.98824,242.882353 L919.341176,920.529412 C909.115192,931.138347 903.440895,945.324088 903.528392,960.058824 L903.528392,1242.41176 L1185.88235,1242.41176 C1200.77756,1242.1996 1214.98557,1236.11045 1225.41176,1225.47059 L1903.05882,547.823529 C1924.58219,525.865308 1924.58219,490.722928 1903.05882,468.764706 Z M1162.16471,1129.47059 L1016.47059,1129.47059 L1016.47059,983.776471 L1468.23529,532.011765 L1613.92941,677.705882 L1162.16471,1129.47059 Z M1694.11765,597.517647 L1548.42353,451.823529 L1637.64706,362.6 L1783.34118,508.294118 L1694.11765,597.517647 Z"/>
    </g>
</svg>

<svg viewBox="0 0 1920 1920" version="1.1" xmlns="http://www.w3.org/2000/svg">
    <g fill-rule="nonzero" stroke="none" stroke-width="1">
        <path d="M1355.294 1694.176v-438.211l112.941-112.941v664.094H0V113h1468.235v99.388l-112.94 112.941v-99.388H112.94v1468.235h1242.353zm-557.93-338.823c16.53-26.51 51.42-34.6 77.93-18.07 26.51 16.529 34.6 51.42 18.07 77.929-9.035 16.94-92.611 160.376-205.552 160.376h-9.036c-70.023-4.517-121.976-48.564-169.411-166.023-47.436-117.46-77.93-127.624-77.93-127.624a484.518 484.518 0 0 0-97.13 225.883c-6.549 31.187-37.14 51.16-68.329 44.611-31.187-6.55-51.16-37.141-44.611-68.33 20.33-94.87 79.059-310.587 199.906-320.752 96-9.035 154.729 108.423 190.87 197.647 28.235 68.894 38.4 92.612 72.283 96 33.882 3.388 89.223-58.73 112.94-101.647zm-458.54-903.53h564.705v112.942H338.824V451.824zm0 225.883h338.823v112.941H338.824V677.706z"/>
        <path d="M1903.059 468.765l-225.883-225.883a56.47 56.47 0 0 0-80.188 0L919.341 920.53a56.476 56.476 0 0 0-15.813 39.53v282.353h282.354a56.47 56.47 0 0 0 39.53-16.941l677.647-677.647c21.523-21.959 21.523-57.101 0-79.06zm-740.894 660.706H1016.47V983.776l451.764-451.764 145.694 145.694-451.764 451.765zm531.953-531.953l-145.694-145.694 89.223-89.224 145.694 145.694-89.223 89.224z"/>
    </g>
</svg>
